icons/Wind_Sun.svg

<svg width="16" height="16" viewBox="0 0 16 16" fill="currentColor" xmlns="http://www.w3.org/2000/svg">
<g clip-path="url(#clip0_4_2564)">
<path d="M11.4233 7.60069C10.0477 7.60069 8.8797 6.43954 8.8797 5.06256C8.8797 3.68557 10.0433 2.52442 11.4233 2.52442C11.9208 2.52442 12.3923 2.6755 12.8551 2.98197C12.9287 3.02946 12.9503 3.13305 12.8984 3.20644C12.8465 3.27982 12.747 3.3014 12.6735 3.2496C12.2582 2.97334 11.8602 2.84384 11.4233 2.84384C10.2207 2.84384 9.20846 3.85824 9.20846 5.05392C9.20846 6.24961 10.225 7.264 11.4233 7.264C12.6215 7.264 13.6381 6.24961 13.6381 5.05392C13.6381 4.75608 13.5689 4.43234 13.4348 4.12586C13.4002 4.04385 13.4348 3.94888 13.5213 3.91435C13.6035 3.87982 13.6987 3.91435 13.7333 4.00068C13.8847 4.35032 13.9625 4.71723 13.9625 5.05824C13.9625 6.4309 12.7989 7.59638 11.419 7.59638L11.4233 7.60069Z" fill="#3D3D3D"/>
<path d="M11.4233 1.98919C11.3324 1.98919 11.2589 1.91581 11.2589 1.82516V0.66401C11.2589 0.573362 11.3324 0.499981 11.4233 0.499981C11.5141 0.499981 11.5877 0.573362 11.5877 0.66401V1.82948C11.5877 1.92013 11.5141 1.99351 11.4233 1.99351V1.98919Z" fill="#3D3D3D"/>
<path d="M11.4233 9.62962C11.3324 9.62962 11.2589 9.55624 11.2589 9.46559V8.30012C11.2589 8.20947 11.3324 8.13609 11.4233 8.13609C11.5141 8.13609 11.5877 8.20947 11.5877 8.30012V9.46559C11.5877 9.55624 11.5141 9.62962 11.4233 9.62962Z" fill="#3D3D3D"/>
<path d="M15.8356 5.22655H14.6676C14.5768 5.22655 14.5033 5.15317 14.5033 5.06252C14.5033 4.97187 14.5768 4.89849 14.6676 4.89849H15.8356C15.9265 4.89849 16 4.97187 16 5.06252C16 5.15317 15.9265 5.22655 15.8356 5.22655Z" fill="#3D3D3D"/>
<path d="M8.17891 5.22655H7.01094C6.9201 5.22655 6.84656 5.15317 6.84656 5.06252C6.84656 4.97187 6.9201 4.89849 7.01094 4.89849H8.17891C8.26975 4.89849 8.34329 4.97187 8.34329 5.06252C8.34329 5.15317 8.26975 5.22655 8.17891 5.22655Z" fill="#3D3D3D"/>
<path d="M13.5429 2.6798C13.4953 2.6798 13.4434 2.65822 13.4131 2.61505C13.3612 2.54167 13.3742 2.44239 13.4434 2.39059C13.4521 2.38628 13.6251 2.24815 14.2913 1.5834C14.3518 1.51865 14.4557 1.51865 14.5205 1.5834C14.5854 1.64814 14.5854 1.74743 14.5205 1.81217C13.8284 2.50282 13.6467 2.64095 13.6381 2.64527C13.6078 2.66685 13.5732 2.6798 13.5386 2.6798H13.5429Z" fill="#3D3D3D"/>
<path d="M8.01019 8.20512C7.96261 8.20512 7.9107 8.18354 7.88042 8.14038C7.82851 8.067 7.84148 7.96771 7.9107 7.91592C7.91935 7.9116 8.09238 7.77347 8.75856 7.10872C8.82345 7.04397 8.92294 7.04397 8.98783 7.10872C9.05272 7.17347 9.05272 7.27275 8.98783 7.3375C8.2957 8.02815 8.11401 8.16628 8.10536 8.17059C8.07508 8.19218 8.04047 8.20512 8.01019 8.20512Z" fill="#3D3D3D"/>
<path d="M14.5811 8.16187C14.5379 8.16187 14.4989 8.14461 14.4643 8.11439C13.7982 7.44964 13.6251 7.31583 13.6165 7.3072C13.5473 7.25108 13.53 7.1518 13.5862 7.08273C13.6381 7.00935 13.7419 6.9964 13.8111 7.05252C13.8198 7.05684 14.0015 7.19497 14.6936 7.88993C14.7585 7.95468 14.7585 8.05396 14.6936 8.11871C14.6633 8.14892 14.6201 8.16619 14.5811 8.16619V8.16187Z" fill="#3D3D3D"/>
<path d="M9.08733 2.8093C9.04407 2.8093 9.00513 2.79203 8.97053 2.76182C8.30435 2.09707 8.13132 1.96325 8.12267 1.95462C8.05345 1.8985 8.03615 1.79922 8.09238 1.73016C8.14429 1.65678 8.24811 1.64383 8.31733 1.69994C8.32598 1.70426 8.50766 1.84239 9.1998 2.53304C9.26468 2.59779 9.26468 2.69707 9.1998 2.76182C9.16952 2.79203 9.12626 2.8093 9.083 2.8093H9.08733Z" fill="#3D3D3D"/>
<path d="M5.66993 7.90294C5.58774 7.90294 5.51853 7.83819 5.50988 7.75618L5.12055 3.56912C5.12055 3.38351 4.9778 3.19789 4.76151 3.19789C4.58848 3.19789 4.40679 3.34034 4.40679 3.55617L4.14724 7.75186C4.14292 7.84251 4.06073 7.90726 3.97421 7.90294C3.88337 7.89863 3.81848 7.82093 3.82281 7.73028L4.08235 3.54322C4.08235 3.1461 4.43275 2.87415 4.76151 2.87415C5.16814 2.87415 5.44499 3.22379 5.44499 3.55617L5.83432 7.73028C5.84297 7.82093 5.77808 7.89863 5.68724 7.90726C5.68291 7.90726 5.67859 7.90726 5.66993 7.90726V7.90294Z" fill="#3D3D3D"/>
<path d="M0.699547 11.2008C0.439997 11.2008 0.193425 11.067 0.0766277 10.8339C-0.0964054 10.4842 0.0333695 10.0482 0.366458 9.88422L3.90066 7.64824C3.97853 7.60076 4.07802 7.62234 4.1256 7.70004C4.17319 7.77342 4.15156 7.87702 4.07369 7.9245L0.526514 10.1648C0.340503 10.2598 0.275616 10.5015 0.366458 10.6914C0.452975 10.8641 0.695221 10.9288 0.885558 10.8339L4.78313 9.02091C4.86532 8.98206 4.96049 9.02091 4.99942 9.09861C5.03835 9.18062 4.99942 9.27559 4.92156 9.31443L1.02398 11.1274C0.920164 11.1792 0.807693 11.2051 0.699547 11.2051V11.2008Z" fill="#3D3D3D"/>
<path d="M8.91863 11.1748C8.79318 11.1748 8.67206 11.1403 8.56824 11.0669L4.78314 9.31007C4.70095 9.27122 4.66635 9.17625 4.70528 9.09424C4.74421 9.01222 4.83938 8.97769 4.92157 9.01654L8.7283 10.7863C8.82347 10.8468 8.91863 10.864 9.00948 10.8381C9.1133 10.8122 9.20414 10.7388 9.25172 10.6439C9.31228 10.5532 9.32526 10.4583 9.30363 10.3676C9.27768 10.264 9.20414 10.1734 9.10897 10.1259L5.59207 7.87265C5.51853 7.82517 5.4969 7.72589 5.54449 7.64819C5.59207 7.57481 5.69157 7.54891 5.76943 7.60071L9.27335 9.84532C9.43341 9.92302 9.57183 10.0914 9.61942 10.2856C9.667 10.4669 9.63672 10.6525 9.53723 10.8079C9.45936 10.9676 9.29066 11.1014 9.10032 11.1532C9.04408 11.1705 8.98352 11.1748 8.92728 11.1748H8.91863Z" fill="#3D3D3D"/>
<path d="M4.84804 8.52014C4.96749 8.52014 5.06433 8.42351 5.06433 8.30431C5.06433 8.18511 4.96749 8.08848 4.84804 8.08848C4.72858 8.08848 4.63174 8.18511 4.63174 8.30431C4.63174 8.42351 4.72858 8.52014 4.84804 8.52014Z" fill="#3D3D3D"/>
<path d="M4.84802 8.67986C4.64038 8.67986 4.46735 8.51151 4.46735 8.3C4.46735 8.08849 4.63605 7.92015 4.84802 7.92015C5.05998 7.92015 5.22869 8.08849 5.22869 8.3C5.22869 8.51151 5.05998 8.67986 4.84802 8.67986ZM4.84802 8.2482C4.81774 8.2482 4.79611 8.2741 4.79611 8.3C4.79611 8.36043 4.90425 8.36043 4.90425 8.3C4.90425 8.26979 4.8783 8.2482 4.85235 8.2482H4.84802Z" fill="#3D3D3D"/>
<path d="M5.19409 15.5H4.58847C4.28567 15.5 4.03909 15.254 4.03909 14.9475L4.29864 10.6223C4.30297 10.5317 4.38516 10.4583 4.47168 10.4712C4.56252 10.4755 4.62741 10.5532 4.62308 10.6439L4.36353 14.9604C4.36353 15.077 4.46302 15.1763 4.5928 15.1763H5.19842C5.32386 15.1763 5.42336 15.077 5.42336 14.9475L5.16381 10.6396C5.15948 10.5489 5.2287 10.4755 5.31521 10.4669C5.40173 10.454 5.47959 10.5273 5.48825 10.618L5.74779 14.9345C5.74779 15.2497 5.50122 15.4957 5.19842 15.4957L5.19409 15.5Z" fill="#3D3D3D"/>
</g>
<defs>
<clipPath id="clip0_4_2564">
<rect width="16" height="16" fill="white"/>
</clipPath>
</defs>
</svg>

<svg xmlns="http://www.w3.org/2000/svg" width="16" height="16" fill="currentColor" class="si si-Wind_Sun" viewBox="0 0 16 16">
  <g clip-path="url(#a)">
    <path d="M11.423 7.6c-1.375 0-2.543-1.16-2.543-2.537s1.163-2.539 2.543-2.539c.498 0 .97.151 1.432.458a.16.16 0 0 1 .043.224.16.16 0 0 1-.224.044c-.416-.277-.814-.406-1.25-.406-1.203 0-2.216 1.014-2.216 2.21s1.017 2.21 2.215 2.21 2.215-1.014 2.215-2.21c0-.298-.07-.622-.203-.928a.16.16 0 0 1 .086-.212.16.16 0 0 1 .212.087c.152.35.23.716.23 1.057 0 1.373-1.164 2.538-2.544 2.538zm0-5.61a.164.164 0 0 1-.164-.165V.664a.164.164 0 0 1 .329 0v1.165a.165.165 0 0 1-.165.165zm0 7.64a.164.164 0 0 1-.164-.164V8.3a.164.164 0 0 1 .329 0v1.166c0 .09-.074.164-.165.164m4.413-4.403h-1.168a.164.164 0 1 1 0-.329h1.168a.164.164 0 1 1 0 .329m-7.657 0H7.01a.164.164 0 1 1 0-.329h1.168a.164.164 0 1 1 0 .329m5.365-2.547a.162.162 0 0 1-.1-.29c.01-.004.182-.142.848-.807a.16.16 0 0 1 .23 0 .16.16 0 0 1 0 .23c-.693.69-.874.828-.883.832a.17.17 0 0 1-.1.035zM8.01 8.205a.162.162 0 0 1-.1-.29c.01-.003.182-.142.849-.806a.16.16 0 0 1 .229 0 .16.16 0 0 1 0 .229c-.692.69-.874.828-.883.833a.17.17 0 0 1-.095.034m6.571-.043a.18.18 0 0 1-.117-.048c-.666-.664-.839-.798-.848-.807-.069-.056-.086-.155-.03-.224a.156.156 0 0 1 .225-.03c.009.004.19.142.883.837a.16.16 0 0 1 0 .229.17.17 0 0 1-.113.047zM9.087 2.81a.18.18 0 0 1-.116-.048c-.667-.665-.84-.799-.848-.807-.07-.056-.087-.156-.03-.225a.156.156 0 0 1 .224-.03c.009.004.19.142.883.833a.16.16 0 0 1 0 .229.17.17 0 0 1-.117.047zM5.67 7.903a.163.163 0 0 1-.16-.147L5.12 3.57c0-.185-.142-.371-.358-.371a.36.36 0 0 0-.355.358l-.26 4.196a.164.164 0 0 1-.173.15.16.16 0 0 1-.151-.172l.26-4.187c0-.397.35-.669.679-.669.406 0 .683.35.683.682l.39 4.174a.16.16 0 0 1-.148.177H5.67z"/>
    <path d="M.7 11.2a.69.69 0 0 1-.623-.366c-.173-.35-.044-.786.29-.95L3.9 7.648a.16.16 0 0 1 .225.052.16.16 0 0 1-.052.224l-3.547 2.24c-.186.096-.251.338-.16.527.086.173.328.238.519.143L4.783 9.02A.165.165 0 0 1 5 9.099a.164.164 0 0 1-.077.215l-3.898 1.813a.7.7 0 0 1-.324.078z"/>
    <path d="M8.919 11.175a.6.6 0 0 1-.35-.108L4.782 9.31a.16.16 0 0 1-.078-.216.16.16 0 0 1 .217-.077l3.806 1.77q.143.09.281.051a.38.38 0 0 0 .243-.194.34.34 0 0 0 .052-.276.38.38 0 0 0-.195-.242L5.592 7.873a.164.164 0 0 1-.048-.225.16.16 0 0 1 .225-.047l3.504 2.244a.68.68 0 0 1 .346.44.65.65 0 0 1-.082.523.7.7 0 0 1-.61.367zM4.848 8.52a.216.216 0 1 0 0-.432.216.216 0 0 0 0 .432"/>
    <path d="M4.848 8.68a.38.38 0 0 1-.38-.38c0-.212.168-.38.38-.38s.38.168.38.38-.168.38-.38.38m0-.432a.053.053 0 0 0-.052.052c0 .06.108.06.108 0a.053.053 0 0 0-.052-.052zm.346 7.252h-.606a.55.55 0 0 1-.549-.553l.26-4.325c.004-.09.086-.164.173-.15a.16.16 0 0 1 .151.172l-.26 4.316c0 .117.1.216.23.216h.605a.224.224 0 0 0 .225-.229l-.26-4.307a.167.167 0 0 1 .152-.173c.087-.013.165.06.173.151l.26 4.317a.55.55 0 0 1-.55.56z"/>
  </g>
  <defs>
    <clipPath id="a">
      <path d="M0 0h16v16H0z"/>
    </clipPath>
  </defs>
</svg>
